html/images/os/kyocera.svg

<svg viewBox="0 0 142.469 151.25" xmlns="http://www.w3.org/2000/svg"><path d="m95.875 0-29.281 29.188h46.594v46.437l29.28-29.188v-46.437h-46.592zm17.312 75.625v46.438h-46.593l29.281 29.187h46.594v-46.437l-29.281-29.188zm0 0-46.593-46.438v92.876l46.594-46.438zm-46.593 46.438-46.594-46.438v46.438zm-46.594-46.438 46.594-46.438h-46.594z" fill="#e31a2f"/></svg>

<svg xmlns="http://www.w3.org/2000/svg" viewBox="0 0 142.469 151.25" version="1"><path d="M95.875 0L66.594 29.188h46.594v46.437l29.28-29.188V0H95.876zm17.312 75.625v46.438H66.594l29.281 29.187h46.594v-46.437l-29.281-29.188zm0 0L66.594 29.187v92.876l46.594-46.438zm-46.593 46.438L20 75.625v46.438h46.594zM20 75.625l46.594-46.438H20v46.438z" fill="#e31a2f"/></svg>
